svgs/duotone/users-slash.svg

<svg xmlns="http://www.w3.org/2000/svg" viewBox="0 0 640 512"><!-- Font Awesome Pro 6.0.0-alpha2 by @fontawesome - https://fontawesome.com License - https://fontawesome.com/license (Commercial License) --><defs><style>.fa-secondary{opacity:.4}</style></defs><path d="M208 80C208 35.818 172.184 0 128 0C103.828 0 82.521 10.973 67.959 27.951L193.123 126.053C202.438 113.074 208 97.24 208 80ZM423.814 216C423.814 158.562 377.273 112 319.859 112C283.928 112 252.789 130.527 234.27 158.303L396.566 285.506C413.379 267.15 423.814 242.906 423.814 216ZM512 160C556.184 160 592 124.182 592 80S556.184 0 512 0C467.82 0 432 35.818 432 80S467.82 160 512 160ZM270.113 352C191.631 352 128 411.693 128 485.332C128 500.059 140.727 512 156.422 512H483.578C495.197 512 505.121 505.416 509.527 496.041L325.748 352H270.113ZM186.969 243.227L121.607 192H88.08C39.438 192 0 233.785 0 285.332C0 295.641 7.887 304 17.615 304H217.07C202.357 286.828 191.812 266.076 186.969 243.227ZM551.92 192H490.08C477.279 192 465.195 195.037 454.221 200.24C454.834 205.475 455.814 210.604 455.814 216C455.814 249.715 443.033 280.211 422.65 304H622.385C632.113 304 640 295.641 640 285.332C640 233.785 600.566 192 551.92 192Z" class="fa-secondary"/><path d="M634.872 502.805C626.747 513.211 611.685 515.086 601.185 506.883L9.189 42.889C-1.249 34.717 -3.061 19.625 5.126 9.188C9.845 3.156 16.907 0 24.032 0C29.189 0 34.407 1.672 38.814 5.109L630.81 469.102C641.247 477.273 643.06 492.367 634.872 502.805Z" class="fa-primary"/></svg>

<svg xmlns="http://www.w3.org/2000/svg" viewBox="0 0 640 512"><!--! Font Awesome Pro 6.3.0 by @fontawesome - https://fontawesome.com License - https://fontawesome.com/license (Commercial License) Copyright 2023 Fonticons, Inc. --><defs><style>.fa-secondary{opacity:.4}</style></defs><path class="fa-primary" d="M634.9 502.8c-8.125 10.41-23.19 12.28-33.69 4.078L9.189 42.89c-10.44-8.172-12.25-23.26-4.062-33.7C9.846 3.156 16.91 0 24.03 0c5.156 0 10.38 1.672 14.78 5.109l591.1 463.1C641.2 477.3 643.1 492.4 634.9 502.8z"/><path class="fa-secondary" d="M208 80C208 35.82 172.2 0 128 0C103.8 0 82.52 10.97 67.96 27.95l125.2 98.1C202.4 113.1 208 97.24 208 80zM423.8 216c0-57.44-46.54-104-103.1-104c-35.93 0-67.07 18.53-85.59 46.3l162.3 127.2C413.4 267.2 423.8 242.9 423.8 216zM512 160c44.18 0 80-35.82 80-80S556.2 0 512 0c-44.18 0-80 35.82-80 80S467.8 160 512 160zM270.1 352C191.6 352 128 411.7 128 485.3C128 500.1 140.7 512 156.4 512h327.2c11.62 0 21.54-6.583 25.95-15.96L325.7 352H270.1zM186.1 243.2L121.6 192H88.08C39.44 192 0 233.8 0 285.3C0 295.6 7.887 304 17.62 304h199.5C202.4 286.8 191.8 266.1 186.1 243.2zM551.9 192h-61.84c-12.8 0-24.88 3.037-35.86 8.24C454.8 205.5 455.8 210.6 455.8 216c0 33.71-12.78 64.21-33.16 88h199.7C632.1 304 640 295.6 640 285.3C640 233.8 600.6 192 551.9 192z"/></svg>
